X: 33642
T: Rambler, The
R: jig
M: 6/8
K: Gmajor
|:D3 D2G|~E3 G2d|edB GAB|AcA GFE|
DED DEG|EDB DBd|edB GAB|AGF G2G:|
|:d2d GBd|~g3 ege|dgd edB|A2A ABc|
d2d GBd|~g3 bge|dBd edB|AGF G2G:|

